X:1
T: Tobermory Bay
P:NB 24 bars
R:Strathspey
Q: 128
K:A
M:4/4
L:1/16
E2|A3B c3B AF3 F3A|E3F A3c ec3 B3c|A3B c3A AF3 F3A|E3A e3c B4 A2E2|
A3B c3B AF3 F3A|E3F A3c ec3 B3c|A3B c3A AF3 F3A|E3A e3c B4 A2z2|
d3f f3d ce3 e3c|d3c B3A cBAE F3A|E3F A3B cdec a3f|e3c A3c B4 A2z2|
d3f f3d ce3 e3c|d3c B3A cBAE F3A|E3F A3B cdec a3f|e3c A3c B4 A2E2|
A3B c3B AF3 F3A|E3F A3c ec3 B3c|A3B c3A AF3 F3A|E3A e3c B4 A2z2|
d3f f3d ce3 e3c|d3c B3A cBAE F3A|E3F A3B cdec a3f|e3c A3c B4 A2||
